X:1
T:Title
%%score 1 2
L:1/8
M:4/2
K:C
V:1 bass nm="Part_1"
V:2 bass nm="Part_2"
V:1
 D,6 D,2 G,4 F,4 | _B,8 A,8 | F,2 F,F, F,2 E,2 D,>E,F,>E, D,>E,D,>C, | %3
 _B,,>C,D,>E, F,>F,,A,,>B,, C,2 D,/E,/D,/B,,/ C,4 | F,,2 F,3 F, G,2 A,3 A,_B,A, C/B,/A,/G,/ | %5
 A,4 A,,4 D,8 | z16 | A,,6 A,,2 D,4 C,4 | F,8 E,8 | %9
 C,2 C,C, C,2 B,,2 A,,>B,,C,>B,, A,,>B,,A,,>G,, | F,,>G,,A,,>B,, C,>D,E,>F, G,2 A,/G,/G,/F,/ G,4 | %11
 C,2 C,3 C, D,2 E,3 E, F,G,A,D, |[M:6/2] E,4 E,,4 A,,8 z2 F,3 F, G,2 | %13
[M:4/2] A,3 A, _B,A,B,G, A,/B,/C/B,/ A,/G,/F,/E,/ D,/E,/F,/D,/ E,/D,/C,/B,,/ | %14
 A,,2 G,,2 A,,4 D,,8 | z4 z2 G,2 E,2 D,2 C,3 C | A,2 G,2 F,2 D,2 _B,,4 B,,2 A,,2 | %17
[M:6/2] G,,8 F,,2 F,E, D,4 E,F,G,F, E,3 E, |[M:4/2] D,4 z2 D,2 B,,2 A,,2 G,,3 G, | %19
 E,2 D,2 C,2 B,,2 A,,4 A,,2 G,,2 | F,,8 E,,2 E,D, C,4 | B,,C,D,C, B,,3 A,, A,,8 | %22
 z4 z2 D2 B,2 A,2 G,3 G, | E,2 D,2 C,2 A,,2 F,,4 F,,2 E,,2 | D,,8 E,,2 C,B,, A,,4 | %25
 B,,C,D,C, B,,3 A,, A,,2 A,G, F,4 | E,F,G,F, E,3 D, D,8 | z4 D,4 D,D,F,G, A,>G, F,2 | _B,8 A,8 | %29
[M:6/2] z24 |[M:3/2] z12 |[M:4/2] z4 A,,4 A,,A,,C,D, E,>D, C,2 | F,8 E,8 | %33
[M:6/2] z4 E,4 A,4 F,4 D,4 G,4 | E,4 C,4 F,4 (D,4 B,,4) E,4 | A,,8 z4 z12 | z24 | %37
 z4 z4 D4 B,4 G,4 C4 | A,4 F,4 _B,4 G,4 E,4 A,4 | D,8 D,4 B,,4 G,,4 G,4 | %40
 E,4 C,4 C2 C2 A,4 F,4 _B,4 | (G,4 E,4) A,4 D,8 _B,,4 |[M:3/2] (G,,4 E,,4) A,,4 | %43
[M:4/2] D,,8 D,2 ^F,2 A,2 B,2 | D4 G,4 z4 CCCC | C2 C4 B,2 B,8 | A,8 A,,2 ^C,2 E,2 ^F,2 | %47
 A,4 D,4 z4 G,G,G,G, | G,2 G,3 A,/B,/ C/B,/A,/G,/ G,4 ^F,4 | E,8 z8 | z16 | z4 D,4 ^C,4 =C,4 | %52
 B,,4 _B,,3 B,, A,,8 | C,8 F,,4 z2 F,2 | _B,2 G,G, A,>G,F,>E, D,2 C,B,, A,,2 G,,2 | A,,8 D,,8 | %56
 z16 | z4 A,4 ^G,4 =G,4 | ^F,4 =F,3 F, E,4 z D,E,F, | G,4- G,D,E,C, G,,8 | C,8 z4 z2 E,2 | %61
 A,2 F,F, _B,2 G,G, C>B,A,>G, F,2 E,D, | C,2 _B,,2 C,4 F,,4 z2 G,,2 | %63
 C,2 A,,A,, D,2 B,,B,, E,>D,C,>B,, A,,2 G,,F,, | E,,2 D,,2 E,,4 A,,8 | %65
 z4 z2 C,2 F,2 D,D, G,2 E,E, | A,>G,F,>E, D,2 C,B,, A,,4 G,,A,,_B,,/A,,/B,,/G,,/ | %67
 A,,C/B,/ A,/G,/F,/E,/ D,G,/F,/ E,/D,/C,/B,,/ A,,4 G,A, _B,/A,/B,/G,/ | A,,8 D,,8- | D,,16 |] %70
V:2
 D,8 G,4 F,4 | _B,8 A,8 | F,4 F,2 E,2 D,4 D,2 C,2 | _B,,4 F,,4 C,2 D,2 C,4 | %4
 F,,4 F,2 G,2 A,4 _B,4 | A,8 D,2 D,4 D,2 | G,4 F,4 _B,8 | A,8 D,4 C,4 | F,8 E,8 | %9
 C,4 C,2 B,,2 A,,4 A,,2 G,,2 | F,,4 C,4 G,,2 A,,2 G,,4 | C,4 C,2 D,2 E,4 F,4 | %12
[M:6/2] E,8 A,,2 A,3 A, G,2 F,6 G,2 |[M:4/2] A,4 _B,4 A,8- | A,8 D,6 D,2 | %15
 B,,2 A,,2 G,,2 G,2 E,2 D,2 C,2 C2 | A,2 G,2 F,2 D,2 _B,,6 A,,2 | %17
[M:6/2] G,,8 F,,4 _B,,3 A,, G,,4 A,,4 |[M:4/2] D,6 D,2 B,,2 A,,2 G,,2 G,2 | %19
 E,2 D,2 C,2 B,,2 A,,6 G,,2 | F,,8 E,,4 A,,2 A,,G,, | F,,2 D,,2 E,,4 A,,6 A,2 | %22
 ^F,2 E,2 D,2 D2 B,2 A,2 G,4 | E,2 D,2 C,2 A,,2 F,,4 F,,2 E,,2 | D,,8 C,,4 F,,2 F,,E,, | %25
 D,,4 E,,4 A,,4 D,2 D,C, | _B,,2 G,,2 A,,4 D,8 | D,8 D,4 A,2 F,2 | _B,8 A,8 | %29
[M:6/2] A,4 D,4 G,4 E,4 C,4 F,4 |[M:3/2] D,4 B,,4 E,4 |[M:4/2] A,,8 A,,4 E,2 C,2 | F,8 E,8- | %33
[M:6/2] E,8 A,4 F,4 D,4 G,4 | E,4 C,4 F,4 D,4 B,,4 E,4 | A,,4 A,4 D4 B,4 G,4 C4 | %36
 A,4 F,4 _B,4 G,4 E,4 A,4 | D,8 D4 B,4 G,4 C4 | A,4 F,4 _B,4 G,4 E,4 A,4 | D,8 D,4 B,,4 G,,4 G,4 | %40
 E,4 C,4 C4 A,4 F,4 _B,4 | G,4 E,4 A,4 D,8 _B,,4 |[M:3/2] G,,4 E,,4 A,,4 |[M:4/2] D,8 D,8 | %44
 B,,8 C,4 E,4 | F,4 D,4 E,8 | A,,8 A,,8 | ^F,,8 G,,4 B,,4 | C,4 A,,4 B,,8 | %49
 E,6 E,2 A,2 F,F, _B,2 G,G, | A,G,F,E, D,2 C,B,, A,,2 G,,2 A,,4 | D,4 D,4 ^C,4 =C,4 | %52
 B,,4 _B,,4 A,,8 | C,8 F,,6 F,2 | _B,2 G,2 A,G,F,E, D,2 C,B,, A,,2 G,,2 | A,,8 D,4 D,4 | %56
 ^C,4 =C,4 B,,4 _B,,4 | A,,4 A,4 ^G,4 =G,4 | ^F,4 =F,4 E,8 | G,8 G,8 | C,6 C,2 F,2 D,D, G,2 E,2 | %61
 A,2 F,2 _B,2 G,2 CB,A,G, F,2 E,D, | C,2 _B,,2 C,4 F,,3 F,, B,,2 G,,G,, | %63
 C,2 A,,2 D,2 B,,2 E,D,C,B,, A,,4 | E,2 D,2 E,4 A,,6 A,,2 | D,2 B,,B,, E,2 C,2 F,2 D,2 G,2 E,2 | %66
 A,4 D,4 A,,4 G,,4 | A,,8 A,,8 | A,,8 D,8- | D,16 |] %70

